images/clients-logo-icons/client-logo-1.svg

<svg width="45" height="48" viewBox="0 0 45 48" fill="none" xmlns="http://www.w3.org/2000/svg">
<path d="M6 0L13.3076 6.70249H33.6924V25.3993L41 32.1018V0H6Z" fill="currentColor"/>
<path d="M0 6.42017V37.605H34V25.2093L13.5231 6.42788L0 6.42017ZM27.5231 33.0434H5.38008V12.07H6.9453V31.6232H27.5231V33.0434Z" fill="currentColor"/>
<path d="M9.79102 43.4863L10.6089 41.8018H11.2925L10.1011 44.0479V45.3564H9.48096V44.0479L8.28711 41.8018H8.97314L9.79102 43.4863ZM13.3018 44.5288H11.9248L11.6367 45.3564H10.9946L12.3374 41.8018H12.8916L14.2368 45.3564H13.5923L13.3018 44.5288ZM12.0981 44.0308H13.1284L12.6133 42.5562L12.0981 44.0308ZM15.7358 44.397C15.7358 44.2326 15.7806 44.082 15.8701 43.9453C15.9596 43.807 16.1362 43.6434 16.3999 43.4546C16.2616 43.2804 16.1647 43.1323 16.1094 43.0103C16.0557 42.8882 16.0288 42.7702 16.0288 42.6562C16.0288 42.3779 16.1134 42.1582 16.2827 41.9971C16.452 41.8343 16.6799 41.7529 16.9663 41.7529C17.2251 41.7529 17.4367 41.8294 17.6011 41.9824C17.7671 42.1338 17.8501 42.3218 17.8501 42.5464C17.8501 42.6945 17.8127 42.8312 17.7378 42.9565C17.6629 43.0802 17.54 43.2039 17.3691 43.3276L17.1274 43.5034L17.8135 44.314C17.9128 44.1187 17.9624 43.9014 17.9624 43.6621H18.4775C18.4775 44.0999 18.375 44.4588 18.1699 44.7388L18.6924 45.3564H18.0039L17.8037 45.1196C17.5498 45.3101 17.2471 45.4053 16.8955 45.4053C16.5439 45.4053 16.2624 45.3125 16.0508 45.127C15.8408 44.9398 15.7358 44.6965 15.7358 44.397ZM16.9126 44.9316C17.1128 44.9316 17.3 44.8649 17.4741 44.7314L16.6978 43.8159L16.6221 43.8696C16.4268 44.0177 16.3291 44.187 16.3291 44.3774C16.3291 44.5418 16.382 44.6753 16.4878 44.7778C16.5936 44.8804 16.7352 44.9316 16.9126 44.9316ZM16.5854 42.6416C16.5854 42.7783 16.6693 42.95 16.8369 43.1567L17.1079 42.9712L17.1836 42.9102C17.2845 42.8206 17.335 42.7059 17.335 42.5659C17.335 42.4731 17.3 42.3942 17.23 42.3291C17.16 42.2624 17.0713 42.229 16.9639 42.229C16.8483 42.229 16.7563 42.2681 16.688 42.3462C16.6196 42.4243 16.5854 42.5228 16.5854 42.6416ZM23.043 44.1992C23.0072 44.5785 22.8672 44.8747 22.623 45.0879C22.3789 45.2995 22.0542 45.4053 21.6489 45.4053C21.3657 45.4053 21.1159 45.3385 20.8994 45.2051C20.6846 45.07 20.5186 44.8787 20.4014 44.6313C20.2842 44.384 20.2231 44.0967 20.2183 43.7695V43.4375C20.2183 43.1022 20.2777 42.8068 20.3965 42.5513C20.5153 42.2957 20.6854 42.0988 20.9067 41.9604C21.1297 41.8221 21.3869 41.7529 21.6782 41.7529C22.0705 41.7529 22.3862 41.8595 22.6255 42.0728C22.8647 42.286 23.0039 42.5871 23.043 42.9761H22.4277C22.3984 42.7205 22.3236 42.5366 22.2031 42.4243C22.0843 42.3104 21.9093 42.2534 21.6782 42.2534C21.4097 42.2534 21.203 42.3519 21.0581 42.5488C20.9149 42.7441 20.8416 43.0314 20.8384 43.4106V43.7256C20.8384 44.1097 20.9067 44.4027 21.0435 44.6045C21.1818 44.8063 21.3836 44.9072 21.6489 44.9072C21.8914 44.9072 22.0737 44.8527 22.1958 44.7437C22.3179 44.6346 22.3952 44.4531 22.4277 44.1992H23.043ZM26.4341 43.6719C26.4341 44.0202 26.3739 44.3262 26.2534 44.5898C26.133 44.8519 25.9604 45.0537 25.7358 45.1953C25.5129 45.3353 25.2557 45.4053 24.9644 45.4053C24.6763 45.4053 24.4191 45.3353 24.1929 45.1953C23.9683 45.0537 23.7941 44.8527 23.6704 44.5923C23.5483 44.3319 23.4865 44.0316 23.4849 43.6914V43.4912C23.4849 43.1445 23.5459 42.8385 23.668 42.5732C23.7917 42.3079 23.965 42.1053 24.188 41.9653C24.4126 41.8237 24.6698 41.7529 24.9595 41.7529C25.2492 41.7529 25.5055 41.8229 25.7285 41.9629C25.9531 42.1012 26.1265 42.3014 26.2485 42.5635C26.3706 42.8239 26.4325 43.1274 26.4341 43.4741V43.6719ZM25.8164 43.4863C25.8164 43.0924 25.7415 42.7905 25.5918 42.5806C25.4437 42.3706 25.2329 42.2656 24.9595 42.2656C24.6925 42.2656 24.4834 42.3706 24.332 42.5806C24.1823 42.7889 24.1058 43.0843 24.1025 43.4668V43.6719C24.1025 44.0625 24.1782 44.3644 24.3296 44.5776C24.4826 44.7909 24.6942 44.8975 24.9644 44.8975C25.2378 44.8975 25.4478 44.7933 25.5942 44.585C25.7424 44.3766 25.8164 44.0723 25.8164 43.6719V43.4863Z" fill="currentColor"/>
</svg>

<svg width="45" height="48" fill="none" xmlns="http://www.w3.org/2000/svg"><path d="M6 0l7.308 6.702h20.384V25.4L41 32.102V0H6z" fill="currentColor"/><path d="M0 6.42v31.185h34V25.209L13.523 6.428 0 6.42zm27.523 26.623H5.38V12.07h1.565v19.553h20.578v1.42zM9.791 43.486l.818-1.684h.684L10.1 44.048v1.308h-.62v-1.308l-1.194-2.246h.686l.818 1.684zm3.51 1.043h-1.376l-.288.827h-.642l1.342-3.554h.555l1.345 3.554h-.645l-.29-.827zm-1.203-.498h1.03l-.515-1.475-.515 1.475zm3.638.366c0-.164.045-.315.134-.452.09-.138.266-.302.53-.49a2.268 2.268 0 01-.29-.445.877.877 0 01-.081-.354c0-.278.084-.498.254-.659.169-.163.397-.244.683-.244.26 0 .47.076.635.23.166.15.25.339.25.563a.785.785 0 01-.113.41 1.34 1.34 0 01-.369.372l-.242.175.687.811c.099-.195.148-.413.148-.652h.515c0 .438-.102.797-.307 1.077l.522.617h-.688l-.2-.236a1.47 1.47 0 01-.909.285c-.351 0-.633-.093-.844-.278a.932.932 0 01-.315-.73zm1.177.535c.2 0 .387-.067.561-.2l-.776-.916-.076.054c-.195.148-.293.317-.293.507 0 .165.053.298.159.4a.584.584 0 00.425.155zm-.328-2.29c0 .136.084.308.252.515l.27-.186.077-.06a.44.44 0 00.151-.345.311.311 0 00-.105-.237.37.37 0 00-.266-.1.348.348 0 00-.276.117.432.432 0 00-.103.296zm6.458 1.557c-.036.38-.176.676-.42.889-.244.212-.569.317-.974.317a1.4 1.4 0 01-.75-.2 1.333 1.333 0 01-.498-.574 2.064 2.064 0 01-.183-.861v-.333c0-.335.06-.63.178-.886.12-.255.29-.452.51-.59.224-.139.48-.208.772-.208.392 0 .708.106.947.32.24.213.379.514.418.903h-.615c-.03-.255-.104-.44-.225-.552-.119-.114-.294-.17-.525-.17-.268 0-.475.098-.62.295-.143.195-.216.482-.22.862v.315c0 .384.069.677.206.879.138.201.34.302.605.302.242 0 .425-.054.547-.163.122-.11.2-.29.232-.545h.615zm3.391-.527c0 .348-.06.654-.18.918-.121.262-.294.464-.518.605-.223.14-.48.21-.772.21-.288 0-.545-.07-.771-.21a1.406 1.406 0 01-.523-.603 2.124 2.124 0 01-.185-.9v-.2c0-.347.06-.653.183-.919.124-.265.297-.468.52-.608.225-.141.482-.212.771-.212.29 0 .547.07.77.21.224.138.398.338.52.6.122.26.184.564.185.911v.198zm-.618-.186c0-.394-.075-.695-.224-.905a.728.728 0 00-.633-.315.73.73 0 00-.627.315c-.15.208-.226.503-.23.886v.205c0 .39.076.692.228.906.153.213.364.32.634.32.274 0 .484-.105.63-.313.148-.208.222-.513.222-.913v-.186z" fill="currentColor"/></svg>
